X: 20033
T: The JOLLY BEGGAR
O: Scottish air, attributed to King James V.
Q: "With spirit, but not too fast."
%R: air, reel
B: W. Hamilton "Universal Tune-Book" Vol. 2 Glasgow 1846 p.3 #3
S: http://s3-eu-west-1.amazonaws.com/itma.dl.printmaterial/book_pdfs/hamiltonvol2web.pdf
Z: 2016 John Chambers <jc:trillian.mit.edu>
M: C
L: 1/8
K: F
%%slurgraces yes
%%graceslurs yes
% - - - - - - - - - - - - - - - - - - - - - - - - -
F |\
FGAB cAFF | Fffg {f}e2(dc) |\
fagf d>efd | cAGF {A}G2FD |\
F>GAB (cA)FF | Fffg {f}e2dc |\
f>ag>f d>efd | cAGF {A}G2FD | F>GA>B (cA)F |]
% - - - - - - - - - - - - - - - - - - - - - - - - -

%%sep 1 1 500
%%sep 1 1 500

